X: 28307
T: Muckin' O' Geordie's Byre, The
R: jig
M: 6/8
K: Dmajor
|:ABA AFA|d2e f2a|g2e f2d|e2d Bcd|
ABA AFA|d2e f2g|afd efe|d3 dcB:|
|:g2g gab|f2f fga|efe ede|fed Bcd|
ABA AFA|d2e f2g|afd efe|ded d3:|

